X: 30846
T: Out In The Cold
R: jig
M: 6/8
K: Gdorian
A|~B2G ABc|dBG FDC|DGG dGG|feg fcA|
~B2G ABc|dge fga|gfd cAF|DG^F G2:|
A|BAB GBd|cAG FGA|~B2G ABc|dg^f g2a|
gfd dcA|feg fcA|~B2G cAF|DG^F G2:|
A|BGG dGG|Bdg dcB|AFF cFF|Acf cAF|
~B2G ABc|dBG FAc|feg fcA|DG^F G2:|

